!!!OTL: 731d. Liebestraum.
!!!ARE: Europa, Mitteleuropa, Deutschland, Hesssen, Dillkreis, Schwalbach
!!!SCT: E0731C
!!!TXL: @@DE
!!!YEM: Copyright 1995, estate of Helmut Schaffrath.
**kern	**text
*ICvox	*
*M3/4	*
*k[f#c#g#d#]	*
*E:	*
!LO:TX:a:t=Langsam.	!
!LO:TX:a:t=Aus dem Dillkreis und Umgegend v. Schwalbach.	!
{8e	Wie
8e	in
8g#	dem
=1	=1
4b	Frühling
8a	.
8g#	und
8a	ſo
8cc#	im
=2	=2
4cc#	Sommer,
8b}	.
{8e	da
8e	blühn
8g#	die
=3	=3
(<4b	Blüm-
8a)	.
8g#	-lein
8a	vol-
8cc#	-ler
=4	=4
4cc#	Wonne
8b}	.
{8b	des
8b	menſchliche
16cc#L	.
16dd#J	.
=5	=5
(4ee	Le-
8dd#)	-ben
8ff#	es
16eeL	muß
16dd#J	.
8cc#	vergehn,
=6	=6
4b	.
8r}	.
{8ee	gleich
8cc#	wie
8b	die
=7	=7
4g#	Blümlein
4b	.
8cc#	auf
8b	dem
=8	=8
4.g#}	Feld.
==	==
!!!AGN: Liebes - Lied, Leid, Klage, Tod
!!!ONB: ESAC (Essen Associative Code) Database: ERK2
!!!AMT: simple triple
!!!AIN: vox
!!!EED: Helmut Schaffrath
!!!EEV: 1.0
!!!GTL: Liebeslieder [Neuere (aus dem 18. bis 19. Jahrh.) - Liebesleid] 678-740
!!!URL-scan: https://rosdok.uni-rostock.de/mcrviewer/recordIdentifier/rosdok_ppn745177662/iview2/phys_0539.iview2?x=193.8995864193107&y=168.44960385095328&scale=0.7029437510502773&rotation=0&layout=singlePageLayout
!!!ENC: Anna Maria Matuszewska
!!!EEV: 2024/12/16
*-	*-
